packages/ffe-icons/icons/filled/sm/home_health.svg

<svg xmlns="http://www.w3.org/2000/svg" height="20" viewBox="0 -960 960 960" width="20"><path d="M442.001-394.001V-336q0 15.833 11.07 26.916t26.884 11.083q15.814 0 26.929-11.083 11.115-11.083 11.115-26.916v-58.001H576q15.833 0 26.916-11.07t11.083-26.884q0-15.814-11.083-26.929-11.083-11.115-26.916-11.115h-58.001V-528q0-15.833-11.07-26.916t-26.884-11.083q-15.814 0-26.929 11.083-11.115 11.083-11.115 26.916v58.001H384q-15.833 0-26.916 11.07t-11.083 26.884q0 15.814 11.083 26.929 11.083 11.115 26.916 11.115h58.001Zm-165.976 230q-26.543 0-45.283-18.891-18.741-18.89-18.741-45.417v-329.537q0-15.022 6.683-28.462 6.683-13.441 19.24-23.383l203.692-153.154q17.953-12.461 38.322-12.461 20.369 0 38.446 12.461l203.692 153.154q12.557 9.942 19.24 23.383 6.683 13.44 6.683 28.462v329.537q0 26.527-18.903 45.417-18.902 18.891-45.445 18.891H276.025Z"/></svg>

<svg xmlns="http://www.w3.org/2000/svg" height="20" viewBox="0 -960 960 960" width="20"><path d="M442-394v58q0 15.83 11.07 26.92Q464.14-298 479.95-298q15.82 0 26.93-11.08Q518-320.17 518-336v-58h58q15.83 0 26.92-11.07Q614-416.14 614-431.95q0-15.82-11.08-26.93Q591.83-470 576-470h-58v-58q0-15.83-11.07-26.92Q495.86-566 480.05-566q-15.82 0-26.93 11.08Q442-543.83 442-528v58h-58q-15.83 0-26.92 11.07Q346-447.86 346-432.05q0 15.82 11.08 26.93Q368.17-394 384-394h58ZM276.03-164q-26.55 0-45.29-18.89T212-228.31v-329.54q0-15.02 6.68-28.46 6.69-13.44 19.24-23.38l203.7-153.15q17.95-12.47 38.32-12.47t38.44 12.47l203.7 153.15q12.55 9.94 19.24 23.38 6.68 13.44 6.68 28.46v329.54q0 26.53-18.9 45.42Q710.19-164 683.65-164H276.03Z"/></svg>
